src/standard/paper-stack-blank.svg

<svg xmlns="http://www.w3.org/2000/svg" viewBox="0 0 36 36">
  <path d="M25.62 27.88V5a.62.62 0 0 0-.62-.62H12a.66.66 0 0 0-.44.19l-4 4a.55.55 0 0 0-.18.43v18.88a.62.62 0 0 0 .62.62h17a.62.62 0 0 0 .62-.62ZM11.38 6.51v1.87H9.51Zm13 20.74H8.62V9.62H12a.62.62 0 0 0 .62-.62V5.62h11.76Z"/>
  <path d="M28 7.5a.62.62 0 0 0-.62.62v22.26H11a.62.62 0 0 0 0 1.24h17a.62.62 0 0 0 .62-.62V8.12A.62.62 0 0 0 28 7.5Z"/>
</svg>

<svg id="b05ce651-18c9-4711-8616-2a1934b3cd84" data-name="Icon" xmlns="http://www.w3.org/2000/svg" viewBox="0 0 36 36">
  <title>Blank paper stack icon - Black</title>
<desc>sheets, empty, new, fresh, printer, report, white, letter, A4, media and documents</desc>
<metadata><?xpacket begin="﻿" id="W5M0MpCehiHzreSzNTczkc9d"?>
<x:xmpmeta xmlns:x="adobe:ns:meta/" x:xmptk="Adobe XMP Core 8.0-c001 1.000000, 0000/00/00-00:00:00        ">
   <rdf:RDF xmlns:rdf="http://www.w3.org/1999/02/22-rdf-syntax-ns#">
      <rdf:Description rdf:about=""
            xmlns:xmp="http://ns.adobe.com/xap/1.0/"
            xmlns:dc="http://purl.org/dc/elements/1.1/"
            xmlns:cq="http://www.day.com/jcr/cq/1.0"
            xmlns:tiff="http://ns.adobe.com/tiff/1.0/">
         <xmp:rhcc-effective-on>2023-12-08T17:37:15.625Z</xmp:rhcc-effective-on>
         <xmp:rhcc-metadata-complete-moderator>pending</xmp:rhcc-metadata-complete-moderator>
         <xmp:rhcc-translation-id>TRA14cb91a6-4f10-48c3-9dcb-72f943c5c850</xmp:rhcc-translation-id>
         <xmp:brand-content-type>Icon</xmp:brand-content-type>
         <xmp:CreateDate>2023-12-08T17:37:15.625Z</xmp:CreateDate>
         <xmp:rhcc-effective-on-set-on-upload>true</xmp:rhcc-effective-on-set-on-upload>
         <xmp:rhcc-metadata-complete-uploader>pending</xmp:rhcc-metadata-complete-uploader>
         <xmp:rhcc-file-last-modified>2023-12-08T17:38:18.340Z</xmp:rhcc-file-last-modified>
         <xmp:rhcc-audience>rhcc-audience:internal</xmp:rhcc-audience>
         <xmp:rhcc-rights-restricted>no</xmp:rhcc-rights-restricted>
         <xmp:brand-content-subtype>Icon</xmp:brand-content-subtype>
         <xmp:rhcc-derivative-id>DER14cb91a6-4f10-48c3-9dcb-72f943c5c850</xmp:rhcc-derivative-id>
         <xmp:brand-logo-color>Black</xmp:brand-logo-color>
         <xmp:rhcc-notify-portal-subscribers-on-change>yes</xmp:rhcc-notify-portal-subscribers-on-change>
         <dc:format>image/svg+xml</dc:format>
         <dc:modified>2024-02-09T20:20:54.074Z</dc:modified>
         <dc:title>
            <rdf:Alt>
               <rdf:li xml:lang="x-default">Blank paper stack icon - Black</rdf:li>
            </rdf:Alt>
         </dc:title>
         <dc:description>
            <rdf:Alt>
               <rdf:li xml:lang="x-default">sheets, empty, new, fresh, printer, report, white, letter, A4, media and documents</rdf:li>
            </rdf:Alt>
         </dc:description>
         <cq:lastReplicationAction_scene7>Activate</cq:lastReplicationAction_scene7>
         <cq:lastReplicationAction_publish>Activate</cq:lastReplicationAction_publish>
         <cq:lastReplicated_publish>2024-02-09T21:59:13.393Z</cq:lastReplicated_publish>
         <cq:lastReplicatedBy>workflow-process-service</cq:lastReplicatedBy>
         <cq:lastReplicationAction>Activate</cq:lastReplicationAction>
         <cq:lastReplicatedBy_publish>workflow-process-service</cq:lastReplicatedBy_publish>
         <cq:isDelivered>true</cq:isDelivered>
         <cq:lastReplicated>2024-02-09T21:59:13.393Z</cq:lastReplicated>
         <cq:lastReplicatedBy_scene7>workflow-process-service</cq:lastReplicatedBy_scene7>
         <cq:lastReplicated_scene7>2024-02-09T21:59:13.393Z</cq:lastReplicated_scene7>
         <tiff:ImageLength>36</tiff:ImageLength>
         <tiff:ImageWidth>36</tiff:ImageWidth>
      </rdf:Description>
   </rdf:RDF>
</x:xmpmeta>
                                                                                                    
                                                                                                    
                                                                                                    
                                                                                                    
                                                                                                    
                                                                                                    
                                                                                                    
                                                                                                    
                                                                                                    
                                                                                                    
                                 
<?xpacket end="w"?></metadata>
<g>
    <path d="M25.62,27.88V5A.62.62,0,0,0,25,4.38H12a.66.66,0,0,0-.44.19l-4,4A.55.55,0,0,0,7.38,9V27.88A.62.62,0,0,0,8,28.5H25A.62.62,0,0,0,25.62,27.88ZM11.38,6.51V8.38H9.51Zm13,20.74H8.62V9.62H12A.62.62,0,0,0,12.62,9V5.62H24.38Z"/>
    <path d="M28,7.5a.62.62,0,0,0-.62.62V30.38H11a.62.62,0,0,0,0,1.24H28a.62.62,0,0,0,.62-.62V8.12A.62.62,0,0,0,28,7.5Z"/>
  </g>
</svg>
